X:442
T: Geht zur Ruhe, meine Glieder (5-38), S. 64
N: P0712
O: Lothringen
S: MERKELBACH-PINCK, Angelika: Verklingende Weisen, Bd 5, Kassel 1962]
R: geistliches, religises Lied]
M: 4/4
L: 1/16
K: F
C2F2 | F4F4F2A2G2F2 | E4F4G4
F2A2 | c2AGF4G4A2G2 | F8z4
C2F2 | F4F4F2A2G2F2 | E4F4G4
F2A2 | c2AGF4G4A2G2 | F8z4
F2G2 | A4A4A4G2A2 | B2A2G4z4
E2F2 | G4G4G4F2G2 | A8z4
C2F2 | F4F4F2A2G2F2 | E4F4G4F2A2 | c2AGF4G4A2G2 | F12

@@@ Tune index: 7992
